picto/stands-p-de-large-framed.svg

<svg class="color-immutable" width="30" height="30" viewBox="0 0 30 30" fill="none" xmlns="http://www.w3.org/2000/svg"><path d="M30 0H0V30H30V0Z" fill="#2D327D"/><path d="M25.5 3C26.325 3 27 3.675 27 4.5V25.5C27 26.325 26.325 27 25.5 27H4.5C3.675 27 3 26.325 3 25.5V4.5C3 3.675 3.675 3 4.5 3H25.5ZM25.5 2.625H4.5C3.46613 2.625 2.625 3.46613 2.625 4.5V25.5C2.625 26.5339 3.46613 27.375 4.5 27.375H25.5C26.5339 27.375 27.375 26.5339 27.375 25.5V4.5C27.375 3.46613 26.5339 2.625 25.5 2.625Z" fill="white"/><path d="M9.97974 10.5079H15.4245C16.3412 10.5079 17.0626 10.5649 17.5886 10.6786C18.1146 10.7926 18.5899 10.994 19.0144 11.2831C20.1894 12.0707 20.777 13.258 20.777 14.8454C20.777 16.2544 20.291 17.3618 19.319 18.1676C18.9067 18.5122 18.4361 18.7598 17.907 18.9105C17.3777 19.0613 16.7258 19.1366 15.9506 19.1366H12.9236V24H9.97974V10.5079ZM12.9236 12.9996V16.8203H15.5537C16.335 16.8203 16.898 16.6818 17.2426 16.405C17.6671 16.0605 17.8793 15.553 17.8793 14.8822C17.8793 14.2056 17.6332 13.701 17.141 13.3687C16.7841 13.1227 16.2027 12.9996 15.3968 12.9996H12.9236Z" fill="white"/><path d="M8.21027 6L7.32894 6.88897L8.29329 8.24865H7.67342L6.99054 7.23967L6.70757 7.52265V8.24865H6.21692V6H6.70757V6.93052L7.58889 6H8.21027Z" fill="white"/><path d="M9.9621 8.24865H9.50685C9.48735 8.18303 9.4776 8.12715 9.4776 8.08103C9.33818 8.22353 9.15818 8.29485 8.93775 8.29485C8.76548 8.29485 8.63115 8.25488 8.53478 8.17485C8.424 8.0826 8.36865 7.9539 8.36865 7.78883C8.36865 7.5786 8.46353 7.43303 8.6532 7.35203C8.73008 7.31918 8.8716 7.28895 9.0777 7.26128C9.25508 7.23773 9.36555 7.21485 9.40913 7.1928C9.4527 7.17075 9.47453 7.12643 9.47453 7.05975C9.47453 6.91313 9.3771 6.83978 9.18233 6.83978C9.07875 6.83978 9.00315 6.85823 8.95545 6.89513C8.90775 6.93203 8.87625 6.99615 8.86088 7.08735H8.43945C8.4528 6.90075 8.523 6.75998 8.6502 6.66518C8.7774 6.57038 8.9583 6.5229 9.19313 6.5229C9.45255 6.5229 9.64433 6.5757 9.76838 6.6813C9.82583 6.7305 9.864 6.7833 9.88298 6.8397C9.90195 6.8961 9.9114 6.98528 9.9114 7.1073C9.9114 7.13295 9.90983 7.24575 9.90675 7.4457C9.90473 7.64768 9.90368 7.76355 9.90368 7.79333C9.90368 7.91535 9.90728 8.00483 9.91448 8.06175C9.92168 8.11868 9.9375 8.181 9.9621 8.24865ZM9.47145 7.43813C9.414 7.47405 9.30945 7.50218 9.15765 7.52273C9.051 7.53915 8.97413 7.56015 8.92695 7.5858C8.86028 7.62173 8.82698 7.6827 8.82698 7.7688C8.82698 7.83855 8.84903 7.89285 8.89313 7.93185C8.93723 7.97085 8.99873 7.99028 9.0777 7.99028C9.20895 7.99028 9.31508 7.94415 9.39608 7.85183C9.4248 7.82003 9.44453 7.78695 9.45533 7.7526C9.46613 7.71825 9.47145 7.67288 9.47145 7.61648V7.43813Z" fill="white"/><path d="M10.6758 6.57367V6.80902C10.7281 6.73724 10.7769 6.68444 10.8219 6.65062C10.9327 6.56452 11.066 6.52139 11.2218 6.52139C11.3592 6.52139 11.4756 6.55627 11.571 6.62602C11.6469 6.68137 11.6999 6.75134 11.7302 6.83594C11.7605 6.92054 11.7756 7.03972 11.7756 7.19354V8.24864H11.331V7.28737C11.331 7.17967 11.3218 7.10077 11.3034 7.05052C11.286 7.00642 11.2562 6.97154 11.2142 6.94589C11.166 6.91822 11.1111 6.90434 11.0496 6.90434C10.982 6.90434 10.9204 6.92077 10.8651 6.95354C10.8097 6.98632 10.7687 7.03094 10.742 7.08734C10.7123 7.15094 10.6974 7.24987 10.6974 7.38419V8.24857H10.2513V6.57367H10.6758Z" fill="white"/><path d="M13.0137 6.56602V6.88132H12.68V7.6704C12.68 7.76475 12.6887 7.82475 12.7061 7.85032C12.7318 7.88722 12.7892 7.90567 12.8784 7.90567C12.9133 7.90567 12.9584 7.90312 13.0138 7.89795V8.2548C12.9133 8.26605 12.821 8.27175 12.737 8.27175C12.6098 8.27175 12.5129 8.25742 12.4463 8.2287C12.3427 8.18257 12.2781 8.0985 12.2525 7.97647C12.2412 7.9242 12.2355 7.81597 12.2355 7.65195V6.88132H11.9633V6.56602H12.2355V6.17227H12.68V6.56602H13.0137Z" fill="white"/><path d="M14.7456 7.72575C14.722 7.8201 14.6794 7.90875 14.6179 7.99185C14.4702 8.19383 14.258 8.29485 13.9812 8.29485C13.731 8.29485 13.5305 8.21588 13.3797 8.058C13.3059 7.98113 13.2495 7.88828 13.2105 7.7796C13.1685 7.66373 13.1475 7.54275 13.1475 7.4166C13.1475 7.17255 13.2177 6.9675 13.3582 6.80138C13.5151 6.61575 13.7181 6.52298 13.9673 6.52298C14.1683 6.52298 14.3395 6.585 14.481 6.70905C14.5826 6.79823 14.6564 6.90825 14.7025 7.03898C14.7486 7.1697 14.7717 7.33403 14.7717 7.53196H13.6012C13.6053 7.614 13.6182 7.68218 13.6397 7.73655C13.7002 7.88318 13.815 7.95653 13.9842 7.95653C14.0673 7.95653 14.135 7.9383 14.1873 7.90193C14.2395 7.86555 14.2826 7.80683 14.3165 7.72583H14.7456V7.72575ZM14.3164 7.23203C14.3082 7.15103 14.2898 7.08383 14.2611 7.0305C14.2323 6.97823 14.1916 6.93668 14.1388 6.90593C14.086 6.87518 14.0283 6.8598 13.9658 6.8598C13.8663 6.8598 13.7843 6.8931 13.7197 6.95978C13.6551 7.02645 13.6167 7.1172 13.6044 7.23203H14.3164Z" fill="white"/></svg>

<svg class="color-immutable" width="30" height="30" viewBox="0 0 30 30" fill="none" xmlns="http://www.w3.org/2000/svg"><g clip-path="url(#a)"><path d="M30 0H0v30h30V0Z" fill="#2D327D"/><path d="M25.5 3c.825 0 1.5.675 1.5 1.5v21c0 .825-.675 1.5-1.5 1.5h-21c-.825 0-1.5-.675-1.5-1.5v-21C3 3.675 3.675 3 4.5 3h21Zm0-.375h-21A1.877 1.877 0 0 0 2.625 4.5v21c0 1.034.841 1.875 1.875 1.875h21a1.877 1.877 0 0 0 1.875-1.875v-21A1.877 1.877 0 0 0 25.5 2.625Z" fill="#fff"/><path d="M9.98 10.508h5.444c.917 0 1.639.057 2.165.17a4.018 4.018 0 0 1 1.425.605c1.175.788 1.763 1.975 1.763 3.562 0 1.41-.486 2.517-1.458 3.323a3.797 3.797 0 0 1-1.412.742c-.53.151-1.181.227-1.956.227h-3.027V24H9.98V10.508ZM12.924 13v3.82h2.63c.781 0 1.344-.138 1.689-.415.424-.345.636-.852.636-1.523 0-.676-.246-1.181-.738-1.513-.357-.246-.938-.37-1.744-.37h-2.473ZM8.21 6l-.881.889.964 1.36h-.62l-.682-1.01-.283.284v.726h-.491V6h.49v.93L7.59 6h.621ZM9.962 8.249h-.455a.606.606 0 0 1-.03-.168.722.722 0 0 1-.54.214c-.172 0-.306-.04-.402-.12a.475.475 0 0 1-.166-.386c0-.21.095-.356.284-.437.077-.033.219-.063.425-.09a1.37 1.37 0 0 0 .331-.07c.044-.021.066-.066.066-.132 0-.147-.098-.22-.293-.22-.103 0-.179.018-.227.055-.047.037-.079.101-.094.192h-.422a.545.545 0 0 1 .211-.422c.127-.095.308-.142.543-.142.26 0 .451.053.575.158.058.05.096.102.115.159a.912.912 0 0 1 .028.267l-.004.339-.003.347c0 .122.003.212.01.269.008.057.024.119.048.187Zm-.49-.81a.866.866 0 0 1-.314.084.757.757 0 0 0-.231.063c-.067.036-.1.097-.1.183 0 .07.022.124.066.163a.27.27 0 0 0 .185.058.403.403 0 0 0 .318-.138.27.27 0 0 0 .06-.1.467.467 0 0 0 .015-.136v-.178ZM10.676 6.574v.235a.632.632 0 0 1 .546-.288c.137 0 .254.035.349.105a.438.438 0 0 1 .16.21c.03.085.045.204.045.358v1.055h-.445v-.962a.743.743 0 0 0-.028-.236.211.211 0 0 0-.089-.105.355.355 0 0 0-.35.008.304.304 0 0 0-.122.133.74.74 0 0 0-.045.297v.865h-.446V6.574h.425ZM13.014 6.566v.315h-.334v.79c0 .094.009.154.026.18.026.036.083.055.172.055.035 0 .08-.003.136-.008v.357c-.1.011-.193.017-.277.017a.764.764 0 0 1-.29-.043.332.332 0 0 1-.194-.253 1.924 1.924 0 0 1-.018-.324v-.77h-.272v-.316h.273v-.394h.444v.394h.334ZM14.746 7.726a.751.751 0 0 1-.128.266c-.148.202-.36.303-.637.303-.25 0-.45-.08-.601-.237a.773.773 0 0 1-.17-.278 1.057 1.057 0 0 1-.063-.363c0-.244.07-.45.211-.616a.76.76 0 0 1 .61-.278c.2 0 .371.062.513.186.102.09.175.2.222.33.046.13.069.295.069.493h-1.17a.65.65 0 0 0 .038.205c.06.146.175.22.344.22.083 0 .151-.019.203-.055a.391.391 0 0 0 .13-.176h.429Zm-.43-.494a.54.54 0 0 0-.055-.202.338.338 0 0 0-.295-.17c-.1 0-.182.033-.246.1a.446.446 0 0 0-.116.272h.712Z" fill="#fff"/></g><defs><clipPath id="a"><path fill="#fff" d="M0 0h30v30H0z"/></clipPath></defs></svg>
